X: 2740
T: Banks Of The Brosna, The
R: jig
M: 6/8
K: Adorian
|:B|cBA BAG|cde g2a|age dBG|AGE ~G3|
cAB AGE|GAB deg|age ded|cAG A2:|
e/g/|~a3 age|cde g2a|age dBG|AGE deg|
~a3 age|cde g2a|age ded|cAG A2 e/g/|
~a3 age|cde g2a|age dB/c/d|ecA GEG|
~A3 AGE|AGA deg|age ded|cAG A2||

